/* XPM */
static char *_95b9350b5ee48cb9ea560322977de45LwskTfYX7wrXpKy5[] = {
/* columns rows colors chars-per-pixel */
"64 64 256 2 ",
"   c #2C0D01",
".  c #2B0602",
"X  c #340C02",
"o  c #3A0D03",
"O  c #370807",
"+  c #2A1503",
"@  c #341302",
"#  c #3C1303",
"$  c #3A1806",
"%  c #301013",
"&  c #372612",
"*  c #262015",
"=  c #460C05",
"-  c #451605",
";  c #541E03",
":  c #420917",
">  c #471615",
",  c #591D1A",
"<  c #6C1908",
"1  c #492808",
"2  c #542302",
"3  c #552C03",
"4  c #5B2C03",
"5  c #52250B",
"6  c #542C0C",
"7  c #5C2B0C",
"8  c #5C2506",
"9  c #4D3402",
"0  c #4C340C",
"q  c #5D3202",
"w  c #5B330B",
"e  c #553606",
"r  c #4A2B13",
"t  c #4A2516",
"y  c #562A13",
"u  c #5B2815",
"i  c #5D3413",
"p  c #593418",
"a  c #4C371A",
"s  c #632403",
"d  c #642B03",
"f  c #6A2B03",
"g  c #632C0C",
"h  c #6A2C0C",
"j  c #672507",
"k  c #62330C",
"l  c #653605",
"z  c #632B13",
"x  c #682916",
"c  c #633313",
"v  c #683719",
"b  c #742E10",
"n  c #69162C",
"m  c #482925",
"M  c #572A26",
"N  c #4B332A",
"B  c #5D3528",
"V  c #583B36",
"C  c #682A24",
"Z  c #643827",
"A  c #6F3A36",
"S  c #5C1126",
"D  c #374B32",
"F  c #534715",
"G  c #674318",
"H  c #78471A",
"J  c #734D0F",
"K  c #554C33",
"L  c #6A4725",
"P  c #784826",
"I  c #7C5837",
"U  c #75502C",
"Y  c #7C653B",
"T  c #492740",
"R  c #565048",
"E  c #725949",
"W  c #456351",
"Q  c #74645D",
"!  c #7B776F",
"~  c #8C332D",
"^  c #814916",
"/  c #835116",
"(  c #946F0C",
")  c #844A28",
"_  c #865839",
"`  c #91582F",
"'  c #8B6239",
"]  c #A36D38",
"[  c #8D4E46",
"{  c #896345",
"}  c #946542",
"|  c #8C6E59",
" . c #A87954",
".. c #B47955",
"X. c #A07445",
"o. c #B1556F",
"O. c #877568",
"+. c #937B70",
"@. c #B3726C",
"#. c #A3444A",
"$. c #C85969",
"%. c #CF6974",
"&. c #4D8B72",
"*. c #B0911E",
"=. c #B09730",
"-. c #E6D81B",
";. c #F7EC06",
":. c #F9F409",
">. c #FBF313",
",. c #F5E819",
"<. c #FAEE2E",
"1. c #E6D722",
"2. c #AD865B",
"3. c #B98958",
"4. c #BB9458",
"5. c #BC854F",
"6. c #92876F",
"7. c #B98763",
"8. c #BB9767",
"9. c #BC9B74",
"0. c #A79175",
"q. c #BDA165",
"w. c #BBA478",
"e. c #C5895B",
"r. c #C4935C",
"t. c #CA925C",
"y. c #C79859",
"u. c #CB9154",
"i. c #C88B65",
"p. c #C49363",
"a. c #CA9463",
"s. c #C39964",
"d. c #C4936B",
"f. c #CA946A",
"g. c #C99A68",
"h. c #D49869",
"j. c #C89975",
"k. c #D69C76",
"l. c #D3886A",
"z. c #CAA46B",
"x. c #C8A575",
"c. c #D4A578",
"v. c #D6A36C",
"b. c #F1E247",
"n. c #3C5E81",
"m. c #4C7E92",
"M. c #D86F8E",
"N. c #EC6C99",
"B. c #F76899",
"V. c #EF7297",
"C. c #F55CA3",
"Z. c #FE68AB",
"A. c #E973A7",
"S. c #F26EAE",
"D. c #FA5D88",
"F. c #54B0BA",
"G. c #5B93A9",
"H. c #3ABAD5",
"J. c #62BADD",
"K. c #3AC8E6",
"L. c #3AC9F7",
"P. c #34D9E8",
"I. c #38D5E2",
"U. c #49C6D2",
"Y. c #4DCDEE",
"T. c #64D4EA",
"R. c #999586",
"E. c #958C8D",
"W. c #A7988D",
"Q. c #BAA887",
"!. c #ADAA9D",
"~. c #A9A596",
"^. c #B2AC9E",
"/. c #BCAB94",
"(. c #B8B49A",
"). c #ADB390",
"_. c #B3AEA3",
"`. c #B2ACA9",
"'. c #B4B1A3",
"]. c #B9B5AB",
"[. c #BEB8B3",
"{. c #AFABA5",
"}. c #9FB69C",
"|. c #D09895",
" X c #C5A886",
".X c #C5B788",
"XX c #D7B78A",
"oX c #C6AC99",
"OX c #C6B699",
"+X c #D4B99A",
"@X c #D7A88A",
"#X c #E3BB8F",
"$X c #C7ABA5",
"%X c #C5B9A6",
"&X c #C4BCB4",
"*X c #D7AAA7",
"=X c #D387A5",
"-X c #A7C2AE",
";X c #E9CA97",
":X c #EAD69C",
">X c #F1CD96",
",X c #DBD5B8",
"<X c #CBC5B1",
"1X c #ECCCA4",
"2X c #EDD3A4",
"3X c #E4D3AC",
"4X c #ECD5AB",
"5X c #EBDAAC",
"6X c #E9D9A6",
"7X c #F3D4AB",
"8X c #F4DAAB",
"9X c #F5D5A6",
"0X c #EBD5B3",
"qX c #ECDCB3",
"wX c #ECDABB",
"eX c #E7D6B8",
"rX c #F2D4B3",
"tX c #F2DBB2",
"yX c #F6D5B9",
"uX c #F5CDB5",
"iX c #E9E3A8",
"pX c #EAE0B8",
"aX c #F3E3B6",
"sX c #FFF2AD",
"dX c #E3DFA7",
"fX c #DCD6C4",
"gX c #D2CDC7",
"hX c #E3DDCA",
"jX c #E7DBC4",
"kX c #E4DDD5",
"lX c #F4D6C1",
"zX c #E6E1CD",
"xX c #EBE7C6",
"cX c #F5EBCB",
"vX c #F7E8C6",
"bX c #FAF1CD",
"nX c #F5F3CA",
"mX c #E9E8D3",
"MX c #FBEDD3",
"NX c #F9ECD9",
"BX c #EEF7D6",
"VX c #F5F4D4",
"CX c #FCF3D5",
"ZX c #FDFAD5",
"AX c #F5F4DB",
"SX c #FEF7DD",
"DX c #F6FADB",
"FX c #FDF9DD",
"GX c #F4FBD4",
"HX c #FDEDE2",
"JX c #F4F5E3",
"KX c #FDF5E2",
"LX c #FEFAE2",
"PX c #FFFBEA",
"IX c #F9F5EB",
"UX c #EEF2E9",
/* pixels */
"SXSXSXSXSXSXSXSXSXSXSXSXSXSXSXSXSXSXSXSXSXSXSXSXSXSXSXSXSXSXSXSXSXSXSXSXSXSXSXSXFXSXSXSXFXFXSXSXSXSXSXSXSXSXSXSXSXSXSXSXSXSXSXSX",
"SXSXSXSXSXSXSXSXSXSXSXSXSXSXSXSXSXSXSXFXFXSXSXSXSXSXSXSXSXSXSXSXSXSXSXSXSXSXSXSXSXSXSXSXSXSXSXSXSXSXSXSXSXSXSXSXSXSXSXSXSXSXSXSX",
"SXSXSXSXSXSXSXSXSXSXSXSXSXSXSXSXSXSXSXSXSXSXSXSXSXSXSXSXSXSXSXSXSXSXSXSXSXSXSXSXSXSXSXSXSXSXSXSXSXSXSXSXSXSXSXSXSXSXSXSXSXSXSXSX",
"SXSXSXSXSXSXSXSXSXSXSXSXSXSXSXSXSXSXSXSXSXSXSXSXSXSXSXSXSXSXSXSXSXSXSXSXSXSXSXSXSXSXSXSXSXSXSXSXSXSXSXSXSXSXSXSXSXSXSXSXSXSXSXSX",
"SXSXSXSXSXSXSXSXSXSXSXSXSXSXSXSXSXSXSXSXSXSXSXSXSXSXSXSXSXSXSXSXSXSXSXSXFXFXFXFXFXSXSXSXSXSXSXFXSXSXSXSXSXSXSXSXSXSXSXSXSXSXSXSX",
"SXSXSXSXSXSXSXSXSXSXSXSXSXSXSXSXSXSXSXSXSXFXFXFXSXSXSXSXSXSXSXSXSXSXSXSXFXFXFXFXSXSXSXSXSXSXSXFXSXSXSXSXSXSXSXSXSXSXSXSXSXSXSXSX",
"SXSXSXSXSXSXSXSXSXSXSXSXSXSXSXSXSXSXSXSXSXSXFXFXSXSXSXSXSXSXSXSXSXSXSXSXSXSXFXFXSXSXSXSXFXFXSXLXSXSXSXSXSXSXSXSXSXSXSXSXSXSXSXSX",
"SXSXSXSXSXSXSXSXSXSXSXSXSXSXSXSXFXCXCXFXFXSXSXSXFXFXFXFXFXFXFXFXFXFXFXFXFXFXFXFXFXFXFXFXFXFXFXFXSXSXSXSXSXSXSXSXSXSXSXSXSXSXSXSX",
"SXSXSXSXSXSXSXSXAXCXFXAXCXLXAXLXVXSXcX+Xx.d.z.j.j.9.j.x.j.x.x.j.w.j.j.8. Xz.j.9.j.q.9.d.XXwXZXLXLXDXFXCXSXSXFXSXSXFXFXSXSXSXSXSX",
"SXSXSXSXSXSXSXSXLXCXFXLXFXSXAXCXUXf.y.r.3.k.e.f.r.h.8.r.g.d.a.g.p.y.y.r.g.a.a.f.p.a.h.y.y.3.8.vXCXFXAXAXLXFXFXFXSXFXSXSXSXSXSXSX",
"SXSXSXSXSXSXSXSXAXCXFXLXFXCXLXbX4.r.] 3 f g 7 d h p 6.s f 6 g f x 4 k _ d j b j z k g 5 8 P v.d.bXCXFXFXCXSXCXLXSXSXSXSXSXSXSXSX",
"SXSXSXSXSXSXSXSXLXFXFXFXCXDXVX Xi.J 8 V.B.<X/.).oX,XAXCX/.OX X/. XQ.%XPXK  XoXQ.oX X X-X}.2 $ g.2.bXKXAXLXSXSXKXSXSXSXSXSXSXSXSX",
"SXSXSXSXSXSXSXSXAXFXAXCXZXLXCX4.5.9 $XC.#.Y Y { { } Q.FXKXE ' Y ' { I JX6.` { Y E { Y J.Y.| 6 M 8.1XCXLXVXZXCXLXSXSXSXSXSXSXSXSX",
"SXSXSXSXSXSXSXSXFXLXLXFXCXJXCXs.` 8 N.M.& d l z 4 3 v m kX1 e 7 7 w ; FXhXd 6 9 q w f V H.m.x   3.XX0XCXDXDXLXAXSXSXSXSXSXSXSXSX",
"SXSXSXSXSXSXSXSXSXAXAXFXFXLXMXu.H v |.C z l K L.G., e p z d 7 C ( ( C +XQ v 5 h 7 9 w k U.P.$ = p.c.tXZXFXAXFXLXSXSXSXSXSXSXSXSX",
"SXSXSXSXSXSXSXSXFXSXLXFXCXJXMXu.U w oXk h g 9 T.Y.Y.V 4 e x e <.;.:.4 6 w q w < %.$.h 1 , + O @ p.#X4XwXFXLXCXDXSXSXSXSXSXSXSXSX",
"SXSXSXSXSXSXSXSXSXCXSXSXFXSXbXt.) P (.c 7 8 3 x D U.* h M l -.>.=.$ 7 u g < N.Z.S.M.8 3 6 o - I s.9X0XxXLXFXFXFXSXSXSXSXSXSXSXSX",
"SXSXSXSXSXSXSXSXSXDXSXSXFXSXbXt.L J <.l r 4 b 4 O + O X X : % # X > X O # o o.n o X @ $   # v p.x.2XqXxXSXSXLXSXSXSXSXSXSXSXSXSX",
"SXSXSXSXSXSXSXSXSXCXSXSXFXFXbXt.U *.:.;.:.G x p + = t & t , M t M > y 5 r t t 5 t t m t c ` r.z.2X4XwXMXFXFXCXCXSXSXSXSXSXSXSXSX",
"SXSXSXSXSXSXSXSXSXCXSXSXFXFXbXt.^ Z Q.- <.. w i @ ` y.h.l.f.e.4.d.a.t.e.p.d.p.h.t.a.3.a.h.e.;X8XtX0XpXCXLXLXCXFXSXSXSXSXSXSXSXSX",
"SXSXSXSXSXSXSXSXSXCXSXSXFXFXbXt.H c OXs i 5 c g : 2.y.>X;X:X2X9X:X:X2X:X2X7X;X9X:X2X7X1XrX0XlXeX3XxXCXCXFXLXSXSXSXSXSXSXSXSXSXSX",
"SXSXSXSXSXSXSXSXSXCXSXSXFXFXbXt.P v .Xg u x 2 c X  .j.qXwXrXqXuX4X7XyXrX7XrX8X0XrX1X8X7X7XtX4X;XxXCXLXSXFXFXCXSXSXSXSXSXSXSXSXSX",
"SXSXSXSXSXSXSXSXSXDXSXSXFXFXbXt.P U (.y k K W y X ..c.2X6XqXCXCXSXMXNXCXvXcXbXVXMXCXnXnXcXvXSXDXFXSXCXSXLXSXFXLXSXSXSXSXSXSXSXSX",
"SXSXSXSXSXSXSXSXSXDXSXSXFXFXbXt.U v OXh d U.K.j @ 2.4.1XeXKXJXZXSXCXDXFXDXLXLXAXJXPXHXHXLXFXSXFXLXSXSXLXFXSXLXAXSXSXSXSXSXSXSXSX",
"SXSXSXSXSXSXSXSXSXDXSXSXSXKXbXt.P Z %Xg 7 J.L.s 1 ..h.a.9.8.f.j.8.q.8.d.9.d.f.9.d..XGXLXLXSXLXCXSXSXSXSXSXSXSXSXSXSXSXSXSXSXSXSX",
"SXSXSXSXSXSXSXSXSXCXSXSXSXKXbXt.H L oX1 i W Y.O 3 } 9.z.y.u.h.d.f.s.y.a.r.y.g.y.t.h.g..XCXLXcXFXSXSXSXSXSXSXSXSXSXSXSXSXSXSXSXSX",
"SXSXSXSXSXSXSXSXSXCXSXSXSXLXbXt.P KXeX4 b M n.; z x 7 4 j 4 k 3 k 7 7 7 h 3 4 b 1 6 5.a.XXCXDXLXSXSXSXSXSXSXSXSXSXSXSXSXSXSXSXSX",
"SXSXSXSXSXSXSXSXSXCXSXSXSXLXbXt.G vXGXLX1 g w z , Z.M.}.$XoX.X$X).<XLXK OX$X*XS.A.#.x  .4.tXPXSXSXSXSXSXSXSXSXSXSXSXSXSXSXSXSXSX",
"SXSXSXSXSXSXSXSXSXCXSXSXFXSXbXt.P B Q.UX6.p 8 7 7 %.B.%.L G G L G { FXE G G H $.B.D.@.- z.g.jXFXSXSXSXSXSXSXSXSXSXSXSXSXSXSXSXSX",
"SXSXSXSXSXSXSXSXSXDXSXSXFXSXbXt./ F @Xp u 2 c 6 4 4 M.Z.t 3 7 u g i ZXW.l q 0 g z = > X ..s.3XCXSXSXSXSXSXSXSXSXSXSXSXSXSXSXSXSX",
"SXSXSXSXSXSXSXSXSXDXSXSXFXFXbXt.U V OX4 k s *.>.7 h i $ g j &.K.B 1 vXE j C 2 z 4 7 r X ` 8.qXyXSXSXSXSXSXSXSXSXSXSXSXSXSXSXSXSX",
"SXSXSXSXSXSXSXSXSXDXSXSXFXFXbXt.^ P $XA.[ j -.:.2 e x C ; F.L.F.- 2 y 1 q v >.,.5 f # @ ] g.eX4XSXSXSXSXSXSXSXSXSXSXSXSXSXSXSXSX",
"SXSXSXSXSXSXSXSXSXDXSXSXFXSXbXt.U v =XZ.S 5 ,.;.3 u k d N P.G.- w 3 y q =.>.>.J 3 - X p g.;X8X0XFXFXFXFXFXFXFXFXFXFXFXFXFXFXFXFX",
"SXSXSXSXSXSXSXSXSXDXSXSXFXSXbXt.J G C.A.- w <.<.> o O % = @ $ > X X : # -.1.O X % o ; ..3.9X4X5XSXSXSXSXSXSXSXSXSXSXSXSXSXSXSXSX",
"SXSXSXSXSXSXSXSXSXDXSXSXFXSXbXt.U w S.> w d 8 $ o + Z a v C V v Z v Z Z i p Z v G ' y.s.rXwXeXvXLXSXKXSXSXSXSXSXSXSXSXKXKXSXSXSX",
"SXSXSXSXSXSXSXSXSXDXSXSXFXSXbXt.) G oXx h g x w # } a.y.r.a.y.u.f.y.d.d.d.d.y.r.a.7.XX8XtX3X3XZXSXSXFXFXSXSXSXSXSXSXSXSXSXSXSXSX",
"SXSXSXSXSXSXSXSXSXCXSXSXFXFXbXt.H G OX7 e z d u   3.8.1XtX2XuX,X3X3X6X4X4X3X3X:X1X1XtX2X2XtXVXJXFXFXFXFXFXFXFXFXFXFXFXFXFXFXFXFX",
"SXSXSXSXSXSXSXSXSXDXSXSXFXFXbXt.^ Z +X7 k 0 3 c   2.s.8X7X3XwX4XeX8X6X3X4X5X4X0X5X5XtX4XxXVXPXPXFXFXFXFXFXFXFXCXCXFXFXFXFXFXFXCX",
"SXSXSXSXSXSXSXSXSXCXSXSXFXSXbXt.H J :.@ 7 q d a O ..j.0XyXaXcXFXbXNXvXSXHXNXFXCXKXSXMXLXJXLXCXbXSXSXLXLXLXLXLXSXLXLXLXSXSXLXLXLX",
"SXSXSXSXSXSXSXSXSXCXSXSXFXFXbXt.U J :.X g g z c + ..q.3XyXBXPXNXPXCXPXKXnXSXhXhXkXfXxXxXfXfX,X<XhXhXhXzXzXzXzXzXzXzXhXfXfXhXzXzX",
"SXSXSXSXSXSXSXSXSXCXSXSXSXSXbXt.P k :.J 3 u f B o  .z.4X0XSXFXCXKXIXSXSXFXcX~.~.^.`.'.R.E.E.E.! O.W.].'.'.].^.'.'.'.!.~.~.!.'.'.",
"SXSXSXSXSXSXSXSXSXCXSXSXSXKXbXt.) i :.w z i p 6 $ 3.s.;X0XxXnXxXsXvXxXnXvXvX0.kXzXkXJXfXR.%X~.^.&X&X[.!.'.^.].!.'.'.'.!.!.'.'.'.",
"SXSXSXSXSXSXSXSXSXDXSXSXFXFXbXt.H Z XXZ 7 h 8 z g ..a.5.h.y.4.l.4.y.i.u.a.8.E W.O.O.W.%XQ K R 6.fX6.[._.!.^.!.].'.'.'.'.'.'.'.'.",
"SXSXSXSXSXSXSXSXSXDXSXSXFXSXbXt.H Z OX8 U.U.Y.G.9 s H H H J J ) H v H ^ A G T | K K | K m N E V ! R.!.`.!.!.~.`.'._._.'.'._._.'.",
"SXSXSXSXSXSXSXSXSXCXSXSXFXFXbXt.H G .Xw Y.Y.K.F.b  .{ I I [ o.B.S.~ _ U U E & -XD E.E.R.~.6.(.+.&XW./.~.!.W.'.].'.'._._._._.'.'.",
"SXSXSXSXSXSXSXSXSXDXSXSXFXFXbXt.P L A.Z g g j t 7 0 0.oXOX|.N.N.#.Z /.OX$Xb.L R R Q +.6.~.E.! a N | 6./.~.).~.^.^._._.^.^._._.^.",
"SXSXSXSXSXSXSXSXSXCXSXSXFXSXbXt.P v Z.A.d 6 w f 6.FX1 g 3 i = u v 4 c l ;.>.=.q 4 x s q 4XPXcX0 o 9.x.0XPXLXSXKXFXKXKXFXFXKXKXFX",
"SXSXSXSXSXSXSXSXSXCXSXSXFXFXbXt.H F V.S.; z q 7 BXNX1 3 4 7 3 h 4 l 3 ;.>.G y q j B.M.r h OXUX+.X X.y.4XKXAXFXFXSXSXSXSXSXSXSXSX",
"SXSXSXSXSXSXSXSXKXDXVXFXSXVXbXd.) 1 *XZ.A l 3 u LXUX3 7 h e s Y.R 5 h - X w j 7 o.D.: u k 3 r : =  .4.9XqXFXNXLXSXSXSXSXSXSXSXSX",
"SXSXSXSXSXSXSXSXSXDXDXFXKXDXbX9.p.e w.< - j 7 g LXt f 4 d d u I.L.F.r h r u ; q A.V.t d q 7 t % - 7.XX2X0XFXAXSXSXSXSXSXSXSXSXSX",
"SXSXSXSXSXSXSXSXSXDXDXSXKXDXZX+X3.H 0 v 7 g e 7 3 y i p v 9 q z G.K.m.0 q d w 4 M.n u 7 1 $ X   P j.9X2XwXCXCXFXSXSXSXSXSXSXSXSX",
"SXSXSXSXSXSXSXSXLXAXFXSXKXAXFXbX8.3._ . O #   : + # X     O X # $ % . X   > X     + # @ % O u ' d.#X7X4XcXFXCXFXSXSXSXSXSXSXSXSX",
"SXSXSXSXSXSXSXSXSXAXFXLXLXAXDXFXPX8.4.8.d.p.3.7.l.e.3.3.4.e.7.3.7.i.7.7.i.5.e.i.e.4.e.3.e.i.a.r.;X7X4XwXCXLXFXFXSXSXSXSXSXSXSXSX",
"SXSXSXSXSXSXSXSXFXFXFXSXSXFXDXDXNXSX4XXXj.j.@Xx. X@X@Xx.j.k.c.z.v.z.c.x.z.x. Xc.c.x.k.x.c.x.:X5X4XrXeXcXCXFXSXSXSXSXSXSXSXSXSXSX",
"SXSXSXSXSXSXSXSXFXFXFXCXCXFXFXDXSXHXIXwX8X9X6XiX8X:X6X:XaX6X4XqX6XiX8XtX5X>XiXdXiX6XyXtX2XaX1X7X0XwXvXFXFXFXSXPXSXSXSXSXSXSXSXSX",
"SXSXSXSXSXSXSXSXSXLXDXLXFXFXSXDXBXLXVXSXCXxXwXlX,XyXeX5XyX6XpX0X0XwX4XiXeXyX5XtX0XpX0XqXqX3XaXeXvXCXSXFXCXLXSXKXSXSXSXSXSXSXSXSX",
"LXLXFXLXSXSXFXLXSXSXSXSXSXSXSXSXSXSXFXSXSXSXSXSXFXFXFXFXFXFXFXFXFXFXFXFXFXFXFXFXSXSXSXSXSXSXSXSXSXSXSXSXSXSXSXSXSXSXSXSXSXSXSXSX",
"FXSXLXCXFXFXLXFXSXSXSXSXSXSXSXSXSXSXSXSXSXSXSXSXFXFXFXFXFXFXFXFXFXFXFXFXFXFXFXFXSXSXSXSXSXSXSXSXSXSXSXSXSXSXSXSXSXSXSXSXSXSXSXSX",
"FXFXFXFXSXFXCXFXSXSXSXSXSXSXSXSXSXSXSXSXSXSXSXSXSXSXSXSXSXSXSXSXSXSXSXSXSXSXSXSXSXSXSXSXSXSXSXSXSXSXSXSXSXSXSXSXSXSXSXSXSXSXSXSX",
"KXKXLXAXLXJXLXJXSXSXSXSXSXSXSXSXSXSXSXSXSXSXSXSXSXSXSXSXSXSXSXSXSXSXSXSXSXSXSXSXSXSXSXSXSXSXSXSXSXSXSXSXSXSXSXSXSXSXSXSXSXSXSXSX",
"SXSXCXLXFXSXCXFXSXSXFXSXSXSXSXSXSXSXSXSXSXSXSXSXSXSXSXSXSXSXSXSXSXSXSXSXSXSXSXSXSXSXSXSXSXSXSXSXSXSXSXSXSXSXSXSXSXSXSXSXSXSXSXSX",
"CXSXFXFXFXFXFXFXFXSXSXFXSXSXSXSXSXSXSXSXSXSXSXSXSXSXSXSXSXSXSXSXSXSXSXSXSXSXSXSXSXSXSXSXSXSXSXSXSXSXSXSXSXSXSXSXSXSXSXSXSXSXSXSX",
"].&XkX`.gXgXkX<XCXSXSXFXSXSXSXFXSXSXSXSXSXSXSXSXSXSXSXSXSXSXSXSXSXSXSXSXSXSXSXSXSXSXSXSXSXSXSXSXSXSXSXSXSXSXSXSXSXSXSXSXSXSXSXSX",
"zXmXmXmXzXmXmXmXAXFXSXFXSXSXSXFXSXSXSXSXSXSXSXSXSXSXSXSXSXSXSXSXSXSXSXSXSXSXSXSXSXSXSXSXSXSXSXSXSXSXSXSXSXSXSXSXSXSXSXSXSXSXSXSX"
};
