/* XPM */
static char *_3eca69275484fbaf3f7d336bb19bd9bitWdBH0u8tCIWkCQ[] = {
/* columns rows colors chars-per-pixel */
"64 64 41 1 ",
"  c black",
". c gray4",
"X c #0C0C0C",
"o c gray8",
"O c gray18",
"+ c #353535",
"@ c gray22",
"# c #4B4B4B",
"$ c #4E4E4E",
"% c gray32",
"& c #585858",
"* c gray36",
"= c #656565",
"- c #6D6D6D",
"; c #717171",
": c #797979",
"> c #808080",
", c #888888",
"< c gray55",
"1 c gray57",
"2 c #989898",
"3 c #A5A5A5",
"4 c #A9A9A9",
"5 c #AEAEAE",
"6 c #B2B2B2",
"7 c #B6B6B6",
"8 c #BBBBBB",
"9 c #C1C1C1",
"0 c gray78",
"q c #CBCBCB",
"w c #CECECE",
"e c #D2D2D2",
"r c gray84",
"t c #D8D8D8",
"y c #E2E2E2",
"u c #E4E4E4",
"i c gray91",
"p c gray93",
"a c #F1F1F1",
"s c #FBFBFB",
"d c white",
/* pixels */
"dddddddddddddddddddddddddddddddddddddddddddddddddddddddddddddddd",
"dddddddddddddddddddddddddddddddddddddddddddddddddddddddddddddddd",
"dddddddddddddddddddddddddddddddddddddddddddddddddddddddddddddddd",
"dddddddddddddddddddddddddddddddddddddddddddddddddddddddddddddddd",
"dddddddddddddddddddddddddddddddddddddddddddddddddddddddddddddddd",
"dddddddddddddddddddddddddddddddddddddddddddddddddddddddddddddddd",
"dddddddddddddddddddddddddddddddddddddddddddddddddddddddddddddddd",
"dddddddddddddddddddddddddddddddddddddddddddddddddddddddddddddddd",
"dddddddddddddddddddddddddddddddddddddddddddddddddddddddddddddddd",
"dddddddddddddddddddddddddddddddddddddddddddddddddddddddddddddddd",
"dddddddddddddddddddddddddddddddddddddddddddddddddddddddddddddddd",
"dddddddddddddddddddddddddddddddddddddddddddddddddddddddddddddddd",
"dddddddddddddddddddddddddddddddddddddddddddddddddddddddddddddddd",
"dddddddddddddddddddddddddddddddddddddddddddddddddddddddddddddddd",
"dddddddddddddddddddddddddddddddddddddddddddddddddddddddddddddddd",
"dddddddddddddddddddddddddddddddddddddddddddddddddddddddddddddddd",
"dddddddddddddddddddddddddddddddddddddddddddddddddddddddddddddddd",
"dddddddddddddddddddddddddddddddddddddddddddddddddddddddddddddddd",
"dddddddddddddddddddddddddddddddddddddddddddddddddddddddddddddddd",
"dddddddddddddddddddddddddddddddddddddddddddddddddddddddddddddddd",
"dddddddddddddddddd       %ddddddddddd           dddddddddddddddd",
"dddddddddddddddddddd&     8ddddddddddddu     ydddddddddddddddddd",
"ddddddddddddddddddddd=     sddddddddddddd   dddddddddddddddddddd",
"dddddddddddddddddddddd      ddddddddddddd0 @dddddddddddddddddddd",
"ddddddddddddddddddddddp      ddddddddddddd =dddddddddddddddddddd",
"ddddddddddddddddddddddd      odddddddddddd 2dddddddddddddddddddd",
"ddddddddddddddddddddddd       @ddddddddddd 5dddddddddddddddddddd",
"ddddddddddddddddddddddd  d     >dddddddddd 8dddddddddddddddddddd",
"ddddddddddddddddddddddd  di     qddddddddd 9dddddddddddddddddddd",
"ddddddddddddddddddddddd@ ddy     pdddddddd 0dddddddddddddddddddd",
"ddddddddddddddddddddddd% ddd5     sddddddd qdddddddddddddddddddd",
"ddddddddddddddddddddddd& dddd>     ddddddd edddddddddddddddddddd",
"ddddddddddddddddddddddd& ddddd+    Xdddddd edddddddddddddddddddd",
"ddddddddddddddddddddddd- dddddd.    Oddddd edddddddddddddddddddd",
"ddddddddddddddddddddddd> ddddddd     =dddd edddddddddddddddddddd",
"ddddddddddddddddddddddd2 dddddddd     8ddd rdddddddddddddddddddd",
"ddddddddddddddddddddddd4 ddddddddw     udd ydddddddddddddddddddd",
"ddddddddddddddddddddddd7 ddddddddd;     sd idddddddddddddddddddd",
"ddddddddddddddddddddddd0 dddddddddd#     d adddddddddddddddddddd",
"dddddddddddddddddddddddt dddddddddddX    X sdddddddddddddddddddd",
"dddddddddddddddddddddddt dddddddddddd      ddddddddddddddddddddd",
"ddddddddddddddddddddddd7 ddddddddddddd     ddddddddddddddddddddd",
"ddddddddddddddddddddddd& 6dddddddddddds    ddddddddddddddddddddd",
"ddddddddddddddddddddddd  odddddddddddddt   ddddddddddddddddddddd",
"ddddddddddddddddddddddi   -ddddddddddddd3  ddddddddddddddddddddd",
"ddddddddddddddddddd>;       *:ddddddddddd$ ddddddddddddddddddddd",
"ddddddddddddddddddd2221111<<<1dddddddddddd,ddddddddddddddddddddd",
"dddddddddddddddddddddddddddddddddddddddddddddddddddddddddddddddd",
"dddddddddddddddddddddddddddddddddddddddddddddddddddddddddddddddd",
"dddddddddddddddddddddddddddddddddddddddddddddddddddddddddddddddd",
"dddddddddddddddddddddddddddddddddddddddddddddddddddddddddddddddd",
"dddddddddddddddddddddddddddddddddddddddddddddddddddddddddddddddd",
"dddddddddddddddddddddddddddddddddddddddddddddddddddddddddddddddd",
"dddddddddddddddddddddddddddddddddddddddddddddddddddddddddddddddd",
"dddddddddddddddddddddddddddddddddddddddddddddddddddddddddddddddd",
"dddddddddddddddddddddddddddddddddddddddddddddddddddddddddddddddd",
"dddddddddddddddddddddddddddddddddddddddddddddddddddddddddddddddd",
"dddddddddddddddddddddddddddddddddddddddddddddddddddddddddddddddd",
"dddddddddddddddddddddddddddddddddddddddddddddddddddddddddddddddd",
"dddddddddddddddddddddddddddddddddddddddddddddddddddddddddddddddd",
"dddddddddddddddddddddddddddddddddddddddddddddddddddddddddddddddd",
"dddddddddddddddddddddddddddddddddddddddddddddddddddddddddddddddd",
"dddddddddddddddddddddddddddddddddddddddddddddddddddddddddddddddd",
"dddddddddddddddddddddddddddddddddddddddddddddddddddddddddddddddd"
};
