/* XPM */
static char *_69b64f474294021d4b15695869f7c84DJRnC0QoTS1zbsI2[] = {
/* columns rows colors chars-per-pixel */
"64 64 171 2 ",
"   c #020505",
".  c #030C0C",
"X  c #0B0C0C",
"o  c #1F0907",
"O  c #120A09",
"+  c #1B0C0B",
"@  c #1C100F",
"#  c #021313",
"$  c #0C1112",
"%  c #041C1E",
"&  c #0C1B1C",
"*  c #131414",
"=  c #1C1716",
"-  c #141C1C",
";  c #1C1C1C",
":  c #210907",
">  c #290F0D",
",  c #231311",
"<  c #2F1711",
"1  c #231E1D",
"2  c #2D1F1E",
"3  c #3B1613",
"4  c #3C1815",
"5  c #301F1F",
"6  c #3B1F1B",
"7  c #22201F",
"8  c #2B201F",
"9  c #3D211B",
"0  c #0E1F21",
"q  c #042121",
"w  c #0C2121",
"e  c #162121",
"r  c #1D2222",
"t  c #1B2B2C",
"y  c #222423",
"u  c #292727",
"i  c #292728",
"p  c #242A2A",
"a  c #2C2C2B",
"s  c #312C2C",
"d  c #253233",
"f  c #2B3435",
"g  c #333332",
"h  c #383433",
"j  c #3E3939",
"k  c #421B16",
"l  c #481A14",
"z  c #431E1A",
"x  c #4D1E1A",
"c  c #531D15",
"v  c #5C1D15",
"b  c #541E19",
"n  c #641B14",
"m  c #6B1D16",
"M  c #751F12",
"N  c #7C1B11",
"B  c #4E221D",
"V  c #5C2116",
"C  c #57221B",
"Z  c #5D221B",
"A  c #672014",
"S  c #6B2012",
"D  c #722014",
"F  c #7A2110",
"G  c #403E3E",
"H  c #483C3B",
"J  c #733128",
"K  c #3E4242",
"L  c #454545",
"P  c #4B4E4E",
"I  c #514C4B",
"U  c #545656",
"Y  c #5B5150",
"T  c #5F5B5B",
"R  c #685B5B",
"E  c #6A605E",
"W  c #676766",
"Q  c #696666",
"!  c #6C6969",
"~  c #736F6E",
"^  c #8A1709",
"/  c #83190D",
"(  c #8E190C",
")  c #9A1606",
"_  c #941709",
"`  c #9A1709",
"'  c #95180C",
"]  c #9A1D0E",
"[  c #861A10",
"{  c #A51605",
"}  c #AD1502",
"|  c #AA1C0B",
" . c #B41500",
".. c #BB1600",
"X. c #B51A05",
"o. c #BF1801",
"O. c #B61E09",
"+. c #842215",
"@. c #882315",
"#. c #80241A",
"$. c #932110",
"%. c #982818",
"&. c #A5210D",
"*. c #AC250F",
"=. c #B7210C",
"-. c #A32313",
";. c #B82610",
":. c #BA2B15",
">. c #BB2F19",
",. c #BC321C",
"<. c #9D3425",
"1. c #BF3B23",
"2. c #C11700",
"3. c #C31901",
"4. c #CB1B01",
"5. c #D41D02",
"6. c #D91E01",
"7. c #CD2006",
"8. c #C3230B",
"9. c #CF240B",
"0. c #D32407",
"q. c #DD2103",
"w. c #D42409",
"e. c #DC270B",
"r. c #CC341B",
"t. c #D63217",
"y. c #E42102",
"u. c #EB2403",
"i. c #E52A0C",
"p. c #EA2808",
"a. c #F42502",
"s. c #FE2602",
"d. c #FF2803",
"f. c #FF2D0A",
"g. c #FF300E",
"h. c #FF3513",
"j. c #FF3816",
"k. c #FF3D1D",
"l. c #C43720",
"z. c #FF401F",
"x. c #FE4424",
"c. c #F1482A",
"v. c #FF4A2A",
"b. c #837B7A",
"n. c #8B8585",
"m. c #8C8887",
"M. c #8C8989",
"N. c #948E8D",
"B. c #9A9392",
"V. c #A09C9B",
"C. c #A3A1A1",
"Z. c #ABA6A5",
"A. c #AFA8A7",
"S. c #AEA9A9",
"D. c #B2ACAC",
"F. c #C2BCBC",
"G. c #C6C3C3",
"H. c #C9C4C3",
"J. c #D2CFCF",
"K. c #D5D1D1",
"L. c #DAD4D3",
"P. c #DEDBDB",
"I. c #E2DDDD",
"U. c #E6E4E3",
"Y. c #EAE6E5",
"T. c #EEEBEB",
"R. c #F1EEED",
"E. c #F4F3F3",
"W. c #F8F7F7",
"Q. c #FDFDFD",
"!. c white",
/* pixels */
"!.!.!.!.!.!.!.!.!.!.!.!.!.!.!.!.!.!.!.!.!.!.!.!.!.!.!.!.!.!.!.!.!.!.!.!.!.!.!.!.!.!.!.!.!.!.!.!.!.!.!.!.!.!.!.!.!.!.!.!.!.!.!.!.",
"!.!.!.!.!.!.!.!.!.!.!.!.!.!.!.!.!.!.!.!.!.!.!.!.!.!.!.!.!.!.!.!.!.!.!.!.!.!.!.!.!.!.!.!.!.!.!.!.!.!.!.!.!.!.!.!.!.!.!.!.!.!.!.!.",
"!.!.!.!.!.!.!.!.!.!.!.!.!.!.!.!.!.!.!.!.!.!.!.!.!.!.!.!.!.!.!.!.!.!.!.!.!.!.!.!.!.!.!.!.!.!.!.!.!.!.!.!.!.!.!.!.!.!.!.!.!.!.!.!.",
"!.!.!.!.!.!.!.!.!.!.!.!.!.!.!.!.!.!.!.!.!.!.!.!.!.!.!.!.!.!.!.!.!.!.!.!.!.!.!.!.!.!.!.!.!.!.!.!.!.!.!.!.!.!.!.!.!.!.!.!.!.!.!.!.",
"!.!.!.!.!.!.!.!.!.!.!.!.!.!.!.!.!.!.!.!.!.!.!.!.!.!.!.!.!.!.!.!.!.!.!.!.!.!.!.!.!.!.!.!.!.!.!.!.!.!.!.!.!.!.!.!.!.!.!.!.!.!.!.!.",
"!.!.!.!.!.!.!.!.!.!.!.!.!.!.!.!.!.!.!.!.!.!.!.!.!.!.!.!.!.!.!.!.!.!.!.!.!.!.!.!.!.!.!.!.!.!.!.!.!.!.!.!.!.!.!.!.!.!.!.!.!.!.!.!.",
"!.!.!.!.!.!.!.!.!.!.!.!.!.!.!.!.!.!.!.!.!.!.!.!.!.W.K.D.N.Q L . O : o + . a W C.P.!.!.!.!.!.!.!.!.!.!.!.!.!.!.!.!.!.!.!.!.!.!.!.",
"!.!.!.!.!.!.!.!.!.!.!.!.!.!.!.!.!.!.!.!.!.T.j d J 0.u.s.s.s.d.d.d.d.d.d.d.d.s.f.u.*.% j !.!.!.!.!.!.!.!.!.!.!.!.!.!.!.!.!.!.!.!.",
"!.!.!.!.!.!.!.!.!.!.!.!.!.!.!.!.!.!.U.y A s.k.f.s.d.d.d.d.d.d.d.d.d.d.d.d.d.d.d.f.d.d.s.5., M.!.!.!.!.!.!.!.!.!.!.!.!.!.!.!.!.!.",
"!.!.!.!.!.!.!.!.!.!.!.!.!.!.!.!.!.* O.s.s.s.s.x.d.d.d.d.d.d.d.d.d.d.d.d.d.d.d.d.d.f.d.d.d.d.s.; F.!.!.!.!.!.!.!.!.!.!.!.!.!.!.!.",
"!.!.!.!.!.!.!.!.!.!.!.!.!.!.!.U.k  .d.d.x.s.d.s.d.d.d.d.d.d.d.d.d.d.d.d.d.d.d.d.d.d.f.d.d.d.d.d.8.Y !.!.!.!.!.!.!.!.!.!.!.!.!.!.",
"!.!.!.!.!.!.!.!.!.!.!.!.!.!.J./  .d.s.j.k.s.d.d.d.d.d.d.d.d.d.d.d.d.d.d.d.d.d.d.d.d.d.f.d.d.d.d.d.q.E !.!.!.!.!.!.!.!.!.!.!.!.!.",
"!.!.!.!.!.!.!.!.!.!.!.!.!.E.n  ...d.s.x.h.5.` / _  . . . .u.d.d.d.d.d.d.d.d.d.d.d.d.d.d.f.d.d.d.d.d.M E.!.!.!.!.!.!.!.!.!.!.!.!.",
"!.!.!.!.!.!.!.!.!.!.!.!.!.1  . .a.d.d.s.d.s.s.s.a.:.w b  . . .d.d.d.d.d.d.d.d.d.d.d.d.d.d.d.d.d.d.d.d.K !.!.!.!.!.!.!.!.!.!.!.!.",
"!.!.!.!.!.!.!.!.!.!.!.!.a  . .,.v.s.d.d.d.d.d.d.s.7.v * s /  . .5.d.d.d.d.d.d.d.d.d.d.d.d.d.s.x.v.d.d.3 !.!.!.!.!.!.!.!.!.!.!.!.",
"!.!.!.!.!.!.!.!.!.!.!.R.}  .1.3.s.v.d.d.d.d.d.-.h W.!.!.!.P.8  . . .d.d.d.d.d.d.d.d.d.d.d.d.v.d.s.v.d.D !.!.!.!.!.!.!.!.!.!.!.!.",
"!.!.!.!.!.!.!.!.!.!.!.-  . .1.x.z.v.d.d.d.s.< !.!.!.!.!.!.!.E.7  . . .a.d.d.d.d.d.d.d.d.d.d.v.k.k.v.d.v !.!.!.!.!.!.!.!.!.!.!.!.",
"!.!.!.!.!.!.!.!.!.!.K. . . . .v.v.s.d.d.d.+.!.!.!.!.!.!.!.!.!.W.r  . . .5.d.d.d.d.d.d.d.d.d.s.v.v.s. .> !.!.!.!.!.!.!.!.!.!.!.!.",
"!.!.!.!.!.!.!.!.!.!.p  . . .3.d.d.d.d.d.s.N.!.!.!.!.!.!.!.!.!.!.T.6  . . . .s.d.d.d.d.d.d.d.d.d.5. . .! !.!.!.!.!.!.!.!.!.!.!.!.",
"!.!.!.!.!.!.!.!.!.!.z ,.:. .y.d.d.d.d.g.S !.!.!.!.!.!.!.!.!.!.!.!.T.8  . . . ...d.d.d.x.k.d.q. . . .r !.!.!.!.!.!.!.!.!.!.!.!.!.",
"!.!.!.!.!.!.!.!.!.!.<.:.=. .d.d.d.d.d.d.- !.!.!.!.!.!.!.!.!.!.!.!.!.R.;  . . . . . .,.:.;. . . . .3 !.!.!.!.!.!.!.!.!.!.!.!.!.!.",
"!.!.!.!.!.!.!.!.!.U.X.X. . .d.d.d.d.d.d.U !.!.!.!.!.!.!.!.!.!.!.!.!.!.!.; }  . . .:.,.;. . . .{ X !.!.!.!.!.!.!.!.!.!.!.!.!.!.!.",
"!.!.!.!.!.!.!.!.!.A. . . . .d.d.d.d.d.d.Q !.!.!.!.!.!.!.!.!.!.!.!.!.!.!.!.D.X n :.:. . .( 4 P T.!.!.!.!.!.!.!.!.!.!.!.!.!.!.!.!.",
"!.!.!.!.!.!.!.!.!.E  . . .} d.d.d.d.d.d.U !.!.!.!.!.!.!.!.!.!.!.!.!.!.!.!.!.!.!.L.n.B.P.!.!.!.!.!.!.!.!.!.!.!.!.!.!.!.!.!.!.!.!.",
"!.!.!.!.!.!.!.!.!.Y  . . .} d.d.d.d.d.d.. !.!.!.!.!.!.!.!.!.!.!.!.!.!.!.!.!.!.!.!.!.!.!.!.!.!.!.!.!.!.!.!.!.!.!.!.!.!.!.!.!.!.!.",
"!.!.!.!.!.!.!.!.!.b. . . . .d.d.d.d.d.d.v !.!.!.!.!.!.!.!.!.!.!.!.!.!.!.!.!.!.!.!.!.!.!.!.!.!.!.!.!.!.!.!.!.!.!.!.!.!.!.!.!.!.!.",
"!.!.!.!.!.!.!.!.!.F. . . .} d.d.d.d.d.d.s.L !.!.!.!.!.!.!.!.!.!.!.P.T f t r & d I F.!.!.!.!.!.!.!.!.!.!.!.!.!.!.!.!.!.!.!.!.!.!.",
"!.!.!.!.!.!.!.!.!.!.]  . . .d.d.d.d.d.d.d.-.S.!.!.!.!.!.!.!.U.  Z s.d.d.x.k.d.d.d.s.D * D.!.!.!.!.!.!.!.!.!.!.!.!.!.!.!.!.!.!.!.",
"!.!.!.!.!.!.!.!.!.!.z  . . .d.d.d.d.d.d.d.d.8.y K.!.!.!.R l u.d.d.d.d.d.d.d.d.d.d.d.d.d.a.Z G !.!.!.!.!.!.!.!.!.!.!.!.!.!.!.!.!.",
"!.!.!.!.!.!.!.!.!.!.*  . . .s.d.d.d.d.d.d.a... . .Z r D s.f.d.d.d.d.d.d.d.d.d.d.d.d.d.d.d.d.d.9 N.!.!.!.!.!.!.!.!.!.!.!.!.!.!.!.",
"!.!.!.!.!.!.!.!.!.!.F.}  . .4.d.d.d.d.d.8.@.x B / 0.s.d.d.d.d.d.d.d.d.d.d.d.d.d.d.d.d.d.d.d.d.d.p.r !.!.!.!.!.!.!.!.!.!.!.!.!.!.",
"!.!.!.!.!.!.!.!.!.!.!.-  . . .s.d.d.d.d.d.d.d.d.d.d.d.d.d.d.d.d.d.d.d.d.d.d.d.d.d.d.d.d.d.d.d.d.d.d.* !.!.!.!.!.!.!.!.!.!.!.!.!.",
"!.!.!.!.!.!.!.!.!.!.!.N.}  . . .d.d.d.d.d.d.d.d.d.d.d.d.d.d.d.d.d.d.d.d.d.d.d.d.d.d.d.d.d.d.d.d.d.d.d.r !.!.!.!.!.!.!.!.!.!.!.!.",
"!.!.!.!.!.!.!.!.!.!.!.!.1  . . .5.d.d.d.d.d.d.d.d.d.d.d.d.d.d.d.d.f.d.d.d.d.d.d.d.d.d.d.d.d.d.d.d.d.d.e.D.!.!.!.!.!.!.!.!.!.!.!.",
"!.!.!.!.!.!.!.!.!.!.!.!.G.'  . . .3.d.d.d.d.d.d.d.d.d.d.d.d.d.d.d.d.f.d.d.d.d.d.d.d.d.d.d.d.d.d.d.d.d.d.% !.!.!.!.!.!.!.!.!.!.!.",
"!.!.!.!.!.!.!.!.!.!.!.!.!.a  . . . . .a.d.d.d.d.d.d.d.d.d.d.d.d.d.d.d.f.d.d.d.d.d.d.d.d.d.d.d.d.d.d.d.d.s.V.!.!.!.!.!.!.!.!.!.!.",
"!.!.!.!.!.!.!.!.!.!.!.!.!.!.=  . . . . . .4.d.d.d.s.k.j.d.d.d.d.d.d.d.d.g.a.3. . . ...u.d.d.d.d.d.d.d.d.s.# !.!.!.!.!.!.!.!.!.!.",
"!.!.!.!.!.!.!.!.!.!.!.!.!.!.!.s )  . . . . . . . .,.r.t.q.q.5.4... . . . .X. . . ./ a.d.d.d.d.d.d.d.d.d.d.c !.!.!.!.!.!.!.!.!.!.",
"!.!.!.!.!.!.!.!.!.!.!.!.!.!.!.!.Z.1  . . . . . .O.>.O. . . . . . . . . . . .X.v x ..d.d.d.d.d.d.d.d.d.d.d.&.!.!.!.!.!.!.!.!.!.!.",
"!.!.!.!.!.!.!.!.!.!.!.!.!.!.!.!.!.!.~ # ^  . .>.;. . . . . . . . . . . ._ = a n  . . .s.d.d.d.d.d.d.d.d.d.0.!.!.!.!.!.!.!.!.!.!.",
"!.!.!.!.!.!.!.!.!.!.!.!.!.!.!.!.!.!.!.!.E.B.i 1 2 m [ ' ' ' N v 1 $   Z.W.!.!.!.y  . . .d.d.d.d.d.d.d.d.d.i.!.!.!.!.!.!.!.!.!.!.",
"!.!.!.!.!.!.!.!.!.!.!.!.!.!.E.T + B k . Q U.!.!.!.!.!.!.!.!.!.!.!.!.!.!.!.!.!.!.!.u  . .s.d.d.d.d.d.d.d.s.9.!.!.!.!.!.!.!.!.!.!.",
"!.!.!.!.!.!.!.!.!.!.!.!.!.H /  .6.d.d.d.k.w.r Y.!.!.!.!.!.!.!.!.!.!.!.!.!.!.!.!.!.!.n  .6.d.d.d.d.d.d.d.x.%.!.!.!.!.!.!.!.!.!.!.",
"!.!.!.!.!.!.!.!.!.!.!.!.L  . . .d.d.s.k.k.s.d.O.h !.!.!.!.!.!.!.!.!.!.!.!.!.!.!.!.!.e X.4.d.d.d.d.d.d.z.x.c !.!.!.!.!.!.!.!.!.!.",
"!.!.!.!.!.!.!.!.!.!.!.!.|  . .s.d.d.s.x.h.d.d.d.s.q K.!.!.!.!.!.!.!.!.!.!.!.!.!.!.!.=  .y.d.d.d.d.d.d.x.k.p !.!.!.!.!.!.!.!.!.!.",
"!.!.!.!.!.!.!.!.!.!.!.;  . . .d.d.d.d.d.s.d.d.d.d.d.&.I !.!.!.!.!.!.!.!.!.!.!.!.!.!.%  .s.d.d.d.d.d.d.s.s.D.!.!.!.!.!.!.!.!.!.!.",
"!.!.!.!.!.!.!.!.!.!.!.&  . . .v.v.s.d.d.d.d.d.d.d.d.d.s.& !.!.!.!.!.!.!.!.!.!.!.!.W.)  .d.d.d.v.v.s.d.d.#.!.!.!.!.!.!.!.!.!.!.!.",
"!.!.!.!.!.!.!.!.!.!.!.0  . .1.s.s.v.d.d.d.d.d.d.d.d.d.d.d.V Q !.!.!.!.!.!.!.!.!.!.a  .y.d.d.v.d.s.v.d.s.s !.!.!.!.!.!.!.!.!.!.!.",
"!.!.!.!.!.!.!.!.!.!.!.5  . .1.>.k.v.d.d.d.d.d.d.d.d.d.d.d.d.s.q I !.!.!.!.!.!.F.1  . .d.d.d.v.h.k.v.d.@.!.!.!.!.!.!.!.!.!.!.!.!.",
"!.!.!.!.!.!.!.!.!.!.!.!./  .O.1.c.s.d.d.d.d.d.d.d.d.d.d.d.d.d.d.s.&.k # $ @ F $.` 2.d.d.d.d.s.v.v.f.s.~ !.!.!.!.!.!.!.!.!.!.!.!.",
"!.!.!.!.!.!.!.!.!.!.!.!..  . . . .d.d.d.d.d.d.d.d.d.d.d.d.d.d.d.d.d.d.d.d.s.w  .s.d.d.d.d.d.d.d.d.d.% !.!.!.!.!.!.!.!.!.!.!.!.!.",
"!.!.!.!.!.!.!.!.!.!.!.!.T.z  . . . .5.f.d.d.d.d.d.d.d.d.d.d.d.d.d.d.s.7.8 +.s.d.d.d.d.z.x.d.d.d.d.v !.!.!.!.!.!.!.!.!.!.!.!.!.!.",
"!.!.!.!.!.!.!.!.!.!.!.!.!.I.C  . . . . .e.s.d.d.d.d.d.d.d.d.d.d.d.d.s.d.d.d.d.d.d.s.x.k.k.d.s.3.+.I.!.!.!.!.!.!.!.!.!.!.!.!.!.!.",
"!.!.!.!.!.!.!.!.!.!.!.!.!.!.K.2  . . . . .X...6.d.d.d.d.d.d.d.d.d.d.d.d.d.d.d.d.d.h.k.j.5. . .v P.!.!.!.!.!.!.!.!.!.!.!.!.!.!.!.",
"!.!.!.!.!.!.!.!.!.!.!.!.!.!.!.!.= m  . . . .X. . . .o.s.s.d.d.d.d.d.d.d.d.d.d.s.x.l. . . . .e !.!.!.!.!.!.!.!.!.!.!.!.!.!.!.!.!.",
"!.!.!.!.!.!.!.!.!.!.!.!.!.!.!.!.!.W.g x  . . .X. . . . . . . . . . . . . . . .,. .O. . .x m.!.!.!.!.!.!.!.!.!.!.!.!.!.!.!.!.!.!.",
"!.!.!.!.!.!.!.!.!.!.!.!.!.!.!.!.!.!.!.!.B.r z } X. . . . . . . . . . . . . .X.X.1.{ % b.!.!.!.!.!.!.!.!.!.!.!.!.!.!.!.!.!.!.!.!.",
"!.!.!.!.!.!.!.!.!.!.!.!.!.!.!.!.!.!.!.!.!.!.!.P.n.h X 6 c N ] |  . . . .} %.c 8 ! Y.!.!.!.!.!.!.!.!.!.!.!.!.!.!.!.!.!.!.!.!.!.!.",
"!.!.!.!.!.!.!.!.!.!.!.!.!.!.!.!.!.!.!.!.!.!.!.!.!.!.!.!.!.!.!.!.I.H.H.L.!.!.!.!.!.!.!.!.!.!.!.!.!.!.!.!.!.!.!.!.!.!.!.!.!.!.!.!.",
"!.!.!.!.!.!.!.!.!.!.!.!.!.!.!.!.!.!.!.!.!.!.!.!.!.!.!.!.!.!.!.!.!.!.!.!.!.!.!.!.!.!.!.!.!.!.!.!.!.!.!.!.!.!.!.!.!.!.!.!.!.!.!.!.",
"!.!.!.!.!.!.!.!.!.!.!.!.!.!.!.!.!.!.!.!.!.!.!.!.!.!.!.!.!.!.!.!.!.!.!.!.!.!.!.!.!.!.!.!.!.!.!.!.!.!.!.!.!.!.!.!.!.!.!.!.!.!.!.!.",
"!.!.!.!.!.!.!.!.!.!.!.!.!.!.!.!.!.!.!.!.!.!.!.!.!.!.!.!.!.!.!.!.!.!.!.!.!.!.!.!.!.!.!.!.!.!.!.!.!.!.!.!.!.!.!.!.!.!.!.!.!.!.!.!.",
"!.!.!.!.!.!.!.!.!.!.!.!.!.!.!.!.!.!.!.!.!.!.!.!.!.!.!.!.!.!.!.!.!.!.!.!.!.!.!.!.!.!.!.!.!.!.!.!.!.!.!.!.!.!.!.!.!.!.!.!.!.!.!.!.",
"!.!.!.!.!.!.!.!.!.!.!.!.!.!.!.!.!.!.!.!.!.!.!.!.!.!.!.!.!.!.!.!.!.!.!.!.!.!.!.!.!.!.!.!.!.!.!.!.!.!.!.!.!.!.!.!.!.!.!.!.!.!.!.!."
};
