/* XPM */
static char *a3e0e44b418640c9d65aa36ad31d5509DE79bz8dF4imI9Cx[] = {
/* columns rows colors chars-per-pixel */
"64 64 249 2 ",
"   c #0A0A09",
".  c #190E07",
"X  c #1B1301",
"o  c #1A170A",
"O  c #090813",
"+  c #120E14",
"@  c #141414",
"#  c #181513",
"$  c #1D1A15",
"%  c #13121A",
"&  c #1C151C",
"*  c #1D1B1C",
"=  c #151C18",
"-  c #0B1309",
";  c #260E01",
":  c #241B0E",
">  c #291907",
",  c #331D04",
"<  c #361A06",
"1  c #230E11",
"2  c #251C13",
"3  c #2A1B13",
"4  c #231C1B",
"5  c #2B1B1C",
"6  c #251616",
"7  c #331C18",
"8  c #1D2218",
"9  c #2B2209",
"0  c #372706",
"q  c #25241C",
"w  c #2A231B",
"e  c #35271A",
"r  c #393206",
"t  c #1D1625",
"y  c #191B26",
"u  c #171127",
"i  c #231C24",
"p  c #291C23",
"a  c #231D2B",
"s  c #2A1D2A",
"d  c #251527",
"f  c #271C32",
"g  c #1D2524",
"h  c #232323",
"j  c #24242A",
"k  c #2A2827",
"l  c #342522",
"z  c #383937",
"x  c #2D2B34",
"c  c #432703",
"v  c #463506",
"b  c #462913",
"n  c #483817",
"m  c #57380F",
"M  c #623E1A",
"N  c #4D3B23",
"B  c #513B23",
"V  c #593831",
"C  c #623E28",
"Z  c #461C04",
"A  c #5B4308",
"S  c #58471B",
"D  c #4A4414",
"F  c #6A5014",
"G  c #50442A",
"H  c #695622",
"J  c #745A2B",
"K  c #7B5B35",
"L  c #654A26",
"P  c #776132",
"I  c #77662C",
"U  c #3B3D41",
"Y  c #484849",
"T  c #534D59",
"R  c #575658",
"E  c #51594E",
"W  c #696867",
"Q  c #777678",
"!  c #6F6F70",
"~  c #5B4E68",
"^  c #8C7734",
"/  c #8A6E2D",
"(  c #92702B",
")  c #856E40",
"_  c #997A44",
"`  c #837944",
"'  c #817D7C",
"]  c #A17D49",
"[  c #7C877D",
"{  c #AE9632",
"}  c #DEB43E",
"|  c #EFAC2B",
" . c #E5AB2D",
".. c #F4AC2D",
"X. c #FCAC2D",
"o. c #F9AA28",
"O. c #EBB62A",
"+. c #F4B22D",
"@. c #FBB42C",
"#. c #F8B929",
"$. c #E8AC35",
"%. c #F5AD33",
"&. c #FAAC34",
"*. c #F4AD3B",
"=. c #FCAD3A",
"-. c #F5A638",
";. c #EDBB33",
":. c #ECBB3C",
">. c #E8B63A",
",. c #F6B234",
"<. c #F9B335",
"1. c #F4BB35",
"2. c #FBBB35",
"3. c #F6B53A",
"4. c #FAB539",
"5. c #F5BB3B",
"6. c #F9B93B",
"7. c #F6A91F",
"8. c #EDC53A",
"9. c #EDCC3C",
"0. c #EAC737",
"q. c #F5C234",
"w. c #FBC435",
"e. c #F5CA36",
"r. c #F4C23C",
"t. c #FAC33C",
"y. c #F4CB3E",
"u. c #FACC3A",
"i. c #ECD93C",
"p. c #F3D23B",
"a. c #EFC92D",
"s. c #96874C",
"d. c #A78748",
"f. c #B88F52",
"g. c #B39857",
"h. c #AB904F",
"j. c #BBAC55",
"k. c #80827D",
"l. c #B4A765",
"z. c #A69965",
"x. c #C99B50",
"c. c #C3A359",
"v. c #D4AB53",
"b. c #D9B859",
"n. c #D1B04A",
"m. c #FCAD44",
"M. c #F5AC47",
"N. c #E9BA47",
"B. c #F5B443",
"V. c #FBB644",
"C. c #F5BD42",
"Z. c #FABC43",
"A. c #F8B849",
"S. c #E5BA55",
"D. c #EDB150",
"F. c #C69E61",
"G. c #C9B969",
"H. c #D7B765",
"J. c #C3AA61",
"K. c #EAB968",
"L. c #EDB767",
"P. c #D9C64D",
"I. c #D7C55D",
"U. c #ECC344",
"Y. c #ECCC44",
"T. c #EDC14C",
"R. c #E7C84A",
"E. c #F5C442",
"W. c #FBC343",
"Q. c #F3CC45",
"!. c #FACB43",
"~. c #F3C44B",
"^. c #FAC44B",
"/. c #F2CC4A",
"(. c #F9CB4A",
"). c #EDD444",
"_. c #EED34B",
"`. c #ECDC4C",
"'. c #E8D947",
"]. c #F3D245",
"[. c #F2DB46",
"{. c #F3D34A",
"}. c #F3DA4D",
"|. c #FAD549",
" X c #E9C858",
".X c #F7C955",
"XX c #ECDB54",
"oX c #EAD658",
"OX c #F4D452",
"+X c #F3DA52",
"@X c #F5D959",
"#X c #ECE247",
"$X c #F5E44B",
"%X c #ECE35A",
"&X c #F3E154",
"*X c #F6E259",
"=X c #D5C566",
"-X c #DBD26B",
";X c #E9C966",
":X c #F0C963",
">X c #E6D867",
",X c #F4D469",
"<X c #E6D778",
"1X c #ECD276",
"2X c #F6E368",
"3X c #7C7B89",
"4X c #847E8A",
"5X c #878786",
"6X c #929791",
"7X c #9BA799",
"8X c #A3A49C",
"9X c #9E9CA1",
"0X c #B5B5B6",
"qX c #AAADAA",
"wX c #A09CAB",
"eX c #BFC2BC",
"rX c #D5C589",
"tX c #E9D988",
"yX c #C0C1B9",
"uX c #B1ACC2",
"iX c #C5BDCC",
"pX c #C7C7C7",
"aX c #D5DACC",
"sX c #D3D4D3",
"dX c #D9DAD5",
"fX c #CDC9D4",
"gX c #E1E6DB",
"hX c #D9DBE5",
"jX c #DEE3E4",
"kX c #E6E6E6",
"lX c #F2F4ED",
"zX c #F5FCEC",
"xX c #FAFDEC",
"cX c #F5FBE8",
"vX c #F4EEF4",
"bX c #EEF5F6",
"nX c #F5F4F4",
"mX c #FBF6F5",
"MX c #F5FBF5",
"NX c #FCFDF5",
"BX c #F4F5FC",
"VX c #FCF6FD",
"CX c #F6FCFC",
"ZX c #FEFEFE",
"AX c white",
"SX c #FEFFFF",
"DX c #FDFDFD",
"FX c #FDFDFD",
"GX c #EEF0F1",
/* pixels */
"SXNXDXSXDXDXDXSXCXxXNXCXMXCXVXxXSXSXSXSXSXCXSXSXSXSXCXSXCXSXDXSXSXSXCXSXSXSXDXSXSXSXSXSXSXSXSXDXxXDXMXCXVXyXqXBXDXDXxXxXSXDXDXSX",
"DXSXSXSXNXhXt & 4 & t u U lXnXSXSXSXSXnXSXSXSXSXCXSXSXCXSXSXDXCXSXSXSXCXDXSXCXSXCXSXSXnXSXSXSXSXVXNXGXO 4 4 4 4 $ u fXSXSXDXSXDX",
"DXBXSXNXW i o 0 D J n 0 5 t ! DXSXSXCXSXSXSXSXSXSXCXSXSXSXCXSXSXSXDXSXSXCXSXSXCXSXSXSXSXSXSXCXSXDXpXt : v l.z.H 0 w f h xXSXDXSX",
"SXSXzXY f n =X'.%X'.%X2Xj.9 4 6XDXSXSXSXSXSXSXSXSXSXSXSXSXSXSXSXSXCXSXSXCXSXmXSXSXCXSXSXSXCXSXSXaXh r <X`.`.&X#X>X-Xn h & SXSXNX",
"NXCXwX4 I %X#XXX@X#XXXXX@X<Xr a nXnXSXSXSXCXSXSXSXSXDXSXSXSXSXSXDXSXCXSXSXSXSXSXSXSXSXSXnXSXSXCXs 9 <XXX&XoX+X`.$X$XoX` 6 T DXNX",
"CXSX& n %Xi.*XXX@X}.`.[.}.&X>Xp z mXSXmXDXSXCXSXSXSXSXDXSXCXCXCXSXSXCXnXCXnXSXCXSXSXCXSXCXSXSXsX4 >X#X@X}.}.oX+X&X_.#XXXS k nXCX",
"NX5X2 tX`.}.oX$X@X`.&X}.OX@X`.) 8 NXCXDXSXSXSXSXSXSXnXSXGXSXCXCXSXCXDXCXSX0XW fXSXCXSXSXSXnXSXh b oX+X,X_.[.2XXX'.2X`.`.tX3 ! DX",
"CXt H `.i.+X*X`.+X$X>X&X}.OX$X>X* yXDXmXSXCXSXSXDXSXR * * # h CXSXSXnXpX*   h # h nXCXSXSXSXSX* J.XX$X}.+X+XXX$X&X+X+X}.%Xr t MX",
"CX: G.i.+X[.+X}.}.}.}.}.}.}.}.}.> z CXVXDXSXDXSXSXk @ dXSXkXz * SXCXkXh 8XnXSXCXW o CXDXVXNXmX5 +X+X+X+X}.}.}.}.[.oXXX}.[.^ i DX",
"BX: <Xi.+X}.}.@X}.}.}.}.}.}.}.}.S g CXSXDXCXSXSX5Xk CXSXSXCXCX  x SX* pXCXnXnXSXVXG O SXSXNXpX6 +X+X+X+X}.}.}.}.].@X+X_.}.l.& DX",
"pX> ,X_.+X}.[.+X}.}.}.}.}.}.}.}.g.* DXVXDXSXnXnXk CXSXSXnXSXSXCXh sX  CXCXCXSXSXSXNXg nXMXMX! . +X+X+X}.}.}.}.}.}.+X+X].+XG.# DX",
"9X> XX+X}.}.[.OX}.}.}.}.}.}.}.}.<X# NXSXDXCXSXsX* SXSXCXSX@ * SXY h sXnXSXSXSXCXVXDXR W MXCXj S }.}.}.}.}.}.}.}.@X[.+X|.+Xl.$ SX",
"9X> `.OX}.}.[.OX}.}.}.}.}.}.}.}. Xw NXVXMXSXSXh 8XnXCXSXSXk # SXCX* lXSXSXDXCXSXVXDXSX  SXCX& g.}.}.}.}.}.}.}.+X@X[.}.}._.s.4 DX",
"0X. XX{.}.}.{.}.}.}.}.}.}.}.}.}.OX3 aXSXSXmXVX- SXSXSXCXCX* k CXSX* SXCXSXSXSXSXSXSXCXk nXCXi I.}.}.}.}.}.}.}.}.}.}.}.}._.J # SX",
"dX. XX{.|.}._.].{.{.{.{.{.{.{.{.|.3 Q BXSXDXVX8 SXSXSXSXSX5XQ SXDX* SXSXSXCXSXSXDXCXVX* DXCX4 XX}.}.}.}.}.}.{.{.}.}.}.OX[.n k SX",
"MX5 R.}.{.{.@Xp.{.{.{.{.{.{.{.{.].l q SXDXNXSX8 SXnXSXSXSXCXSXSXnXh SXCXDXSXCXSXDXCXSX& SXjX5 ).{.{.{.{.{.{.{.{.].+X)./.$X3 T CX",
"NXh >X@X{.[.{.{.{.{.{.{.{.{.}.{.{.J y CXNXCXSX4 MXSXDXDXSXCXSXSXCX& NXSXVXVXVXaXCXVXMX8 CX[ . p.{.{.{.{.{.}.}.}.}.{.}.{.[.6 5XVX",
"DX# =X/.{.Y.}.}.{.{.{.{.{.{.{.{.+Xj.y CXDXCXDX4 0XSXNXNXSXSXDXNXzXs lXcXnXDXg g kXmXeXh VXk N p.{.{.{.{.{.{.{.{.{.}.]./.`.5 pXVX",
"VX# s.}.].{./.}.{.{.{.{.{.{.{.{.Y.I.h DXDXCXDXpX# DXSXVXNXNXCXVXY d T CXSXDX% h qXNX* iXVXh s.9.{.{.{.{.{.{.{.{.].OX].{.oX4 nXVX",
"VXz N ].].OX/.].].]././.{.{.{.{.+XoX4 MXVXCXDXnX% NXDXSXSXxXSXDXw rXe BXcXDXi 2 jXdX8 BXmX% =X|.{.]./././.{.{.{.Q.OXQ.{.=Xh CXSX",
"SX[ 6 9.p./.(._.Q.Q.Q.Q.Q.Q.Q.Q._._.w 0XSXSXmXsXq h MXCXCXCXNX@ ; oX, % zXSXlX8XVXj 7XvXSXi P./.Q.Q.Q.Q.Q.Q.Q.Q.Q.OXQ.Y.g.h CXSX",
"SXaXp oX9./.|.Q.Q.Q.Q.Q.Q.Q.Q.Q._.Q.; Y DXSXSX# 9 X O BXxXSX~ X ,XOXoX>   aXCX7X# y MXNXmXh _.{.Q.Q.Q.Q.Q.Q.Q.Q.]./.Q.{.) @ CXSX",
"VXDXs ;X].{.Q././.Q.Q.Q.Q.Q.Q.Q._.].S t SXmXSX* H.1X, s 2 5 < 2X0.e.{.<Xv > X 5 s.$ CXNX0X2 )./.Q.Q.Q.Q.Q.Q.Q.Q.p./.Q.{.G = CXSX",
"DXMXi c.}.U.Q.{.Q.Q.Q.Q.Q.Q.Q.Q.Y.y._ t SXNXvXq N.0.'.=Xd.b. X.Xi..Xu.9.S. X:X:X=X: 3XmXY X ].~.Q.Q.Q.Q.Q.Q.Q.Q.9..XQ.Y.e U CXDX",
"NXCX@ J Y.y.(.Q.Q.Q.Q.Q.Q.Q.Q.Q./.E.I.d VXzXQ 0 e.,Xm m 0.t.e.w.^././.^.{ A ^ _.9.>   VXh S .Xt.Q.Q.Q.Q.Q.Q.Q.Q.Q.Q.9.oX; Q DXVX",
"DXDXR b Q.!./.Q.Q.Q.Q.Q.Q.Q.Q.Q.Q.(.P.s vXzX% H oXZ |.P.!.U.,X~.e.y.y./.N.J.rXA Q.S j SX* ^ Q.!.Q.Q.Q.Q.Q.Q.Q.Q.E.!.]. Xw 0XMXSX",
"SXDXqX> Y.Q.Y.Q.Q.Q.Q.Q.Q.Q.Q.Q.y.(.R.p 5XlX4 <X,X X^.X ^./.y.y.U..Xu.]..X, j.M (.d.8 VX# n.p.~.Q.Q.Q.Q.Q.Q.Q.Q.E.y.y.;X3 kXDXSX",
"CXSXgXq /.E.Y.q.Q.Q.Q.Q.Q.Q.Q.Q.y././.> * kX3 oXS.1XU.= {.~.W.a.p. Xe.U..X7 1X!.E.H.o BXl  Xe..XQ.Q.Q.Q.Q.Q.Q.E.Q.q.8.=X2 DXSXSX",
"DXVXNXj ;XQ./.t.E.E.E.E.E.E.E.E.E.8.^.v a Y , 0.E.;Xa.S / O.t.R.a..XC.!.j.; T.w.(.T.w sX4 T.y.T.E.E.E.E.E.E.E.E.E.t.y.h.q DXSXCX",
"SXVXDX% c.y.Q.!.E.E.E.E.E.E.E.E.E.y.~./ a 4 _ u.!.T.a.;X2 @X^.y.y.Z.t.@Xh c.E..X~.|.5 ! l .Xy..XE.E.E.E.E.E.E.!.Q.W.Q.J # VXVXSX",
"SXVXDXt K 8.E.Q.E.E.E.E.E.E.E.E.y.q.E.v.f $ ;X5.^.e.^.O.D b oXN.E.~.R.G 3 a.^.a.N.q.0 q : U.E.E.E.E.E.E.E.E.E.E./.W.Q.n * SXVXDX",
"SXCXCXY n 8.t.U.E.E.E.E.E.E.E.E.q.t.y.;X& h T.^.E.!.6.^.R.c X g.K.h.: X U.E.(.r.E.A.( a X 9.E.W.E.E.E.E.E.E.E.E.~.Z.E., Y SXVXDX",
"SXNXNXqX8 .Xr.E.E.E.E.E.E.E.E.E.t.E.;.T.2 l E.y.r.E.W.t.!. X_ , k X F oX>.q.r.E.Q.C.b.i b E.0.(.E.E.E.E.E.E.E.E./.2. X9 5XmXNXSX",
"SXNXDXkX= S.;.E.E.E.E.E.E.E.E.E.W.(.!.~.> > E.!.E.~.^.!.q.u.].R.A.A.6.6.1.W.E.E.E.W.:X2 K W.y.C.E.E.E.E.E.E.E.E.~.t.;X4 sXSXNXSX",
"SXDXVXSXh K.w.W.E.E.r.r.E.E.E.E.r.C.y.U.m S r.5.e.r.E.W.W.t.t.q.8.y.W.C.^.C.5.t.E.W..X0 f.W.8.C.E.E.E.E.E.E.E.E.E.1.H.h CXDXSXVX",
"CXSXVXDX@ d.q.5.r.r.r.r.r.r.r.r.!.C.y.E.h.c.t.!.C.E.E.5.Z.^.W.5.8.;.8.E.:.5.E.C.Z.5.~./ S.t.8.C.r.r.r.r.r.r.r.r.5.w.f.a CXDXSXDX",
"NXSXSXDX& L q.5.r.r.r.r.r.r.r.r.5.C.8.r.b.;X1.r.A.E.y.t.5.1.1.t.2.w.1.q.t.!.5.C.Z.5.W.S.T.5.y.Z.r.r.r.r.r.r.5.r.1.q.J + DXSXDXDX",
"DXCXSXDXQ e 5.t.5.5.5.5.5.5.5.5.5.Z.r.5.A.N.5.5.t.q.;.;.E.W.E.E.E.~.N.:.C.5.1.t.5.W.2..Xr.5.5.5.5.5.r.r.5.5.5.5.5.:.0 h DXSXMXDX",
"VXSXSXDXsX: D.t.5.5.5.5.5.5.5.5.1.6.5.5.W.:.5.:.1.5.C.C.Z.Z.5.;.1.1.t.6.5.5.r.;.5.y.,.>.q.Z.;.1.5.5.5.5.5.5.5.5.t.N.3 k.DXMXSXVX",
"VXSXmXSXmXk L.;.5.5.5.5.5.5.5.5.t.6.5.5.6.t.1.E.5.1.5.5.2.2.5.C.5.5.5.t.5.5.5.W.5.;.W.6.#.A.C.1.5.5.5.5.5.5.5.5.1.:X5 sXSXSXDXVX",
"SXDXNXCXSXh J.2.5.5.5.5.5.5.5.5.5.5.5.5.5.5.5.5.Z.t.3.1.q.6.W.N.1.2.5.1.Z.5.C.6.5.5.5.5.5.5.5.5.6.6.6.5.5.5.5.5.6.j.i NXSXDXDXDX",
"DXSXDXSXDX+ I 2.5.5.5.5.5.5.5.5.5.5.5.5.5.5.5.5.3.t.5.5.;.6.$.v.:.,.5.1.Z.1.5.<.5.5.5.5.5.5.5.5.5.5.5.5.5.5.5.5.6.I h CXSXSXSXDX",
"SXVXSXSXSXz B ;.5.5.5.5.5.3.5.5.5.5.5.5.5.5.5.5.6.5.3.3.Z.6.>.F S.5.Z.1.6.C.5.6.5.5.5.5.6.6.6.6.5.3.3.3.5.5.5.5.;.c # VXmXSXSXMX",
"DXSXVXCXDX0X1 >.5.5.6.6.6.6.6.6.6.6.6.6.6.6.6.6.6.5.6.6.Z.#..X; _ 2.V.,.<.3.1.6.6.6.6.6.6.6.6.6.5.6.3.3.3.6.6.6.U.> k.VXSXSXVXSX",
"DXVXSXDXDXlXs  X6.6.6.6.6.6.6.6.6.6.6.6.6.6.6.6.4.1.6.6.,.#.N.6 < O.6.B.<.<.,.6.6.6.6.6.6.6.6.6.6.6.6.6.6.6.6.6.b.4 dXBXDXDXSXSX",
"DXVXSXSXNXnXa c.,.,.<.<.<.6.<.<.6.<.6.6.6.6.6.6.4.1.,.4.<.#.S.4 1 E.4.B.<.2.3.2.6.6.6.6.6.6.3.3.<.6.6.6.3.,.,.,.g.j lXVXSXNXSXCX",
"mXSXSXSXNXSX+ J ,.,.,.<.<.<.<.<.<.<.<.<.6.6.6.6.4.#.6.4.,.,.c.j k S.<.,.,.<.B.+.6.6.<.6.<.<.3.3.<.<.6.6.6.,.,.,.N @ DXVXSXxXVXSX",
"SXVXDXVXDXBXW , ,.<.<.6.6.6.6.6.<.<.<.<.6.6.6.6.4.#.,.4.<.B.F O q x.6.#.6.=.V.#.6.6.<.<.<.,.,.,.<.6.6.6.6.,.,.,.5 E CXSXVXNXSXCX",
"CXCXSXSXSXSXdX* N.%.+.V.@.3.=.4.6.6.4.4.4.6.6.6.<.2.=.3.#.M., Q y c B.@.,.=.2.<.6.6.4.6.6.6.6.6.4.,.4.2.5.=.#.L.* pXSXSXSXSXSXSX",
"SXSXDXSXCXCXSXh b.<.6.,.,.3.4.<.<.<.<.<.<.<.<.<.,.2.=.6.| ^.7 bX0X; B.2.6.=.3.,.<.<.<.<.<.<.<.<.4.,.4.| 3.4.2.d.h CXSXCXSXSXSXDX",
"SXSXCXSXSXSXSX+ L <.&.2.,.3.2.| <.<.<.<.<.<.<.<.3.,.V.,.=.N.* SXVX= D.| ..6.Z.<.<.<.<.<.<.<.,.,.<.4.<.6.3.=.;.n + SXSXSXSXCXSXSX",
"DXSXSXCXSXSXMXW 3 V.@.| ,.<.%.<.,.,.,.<.,.,.,.,.3.<.| <.=.v.h nXSXy f.@.4.,.*.+.,.,.,.,.,.,.,.,.%.4...3...m.N.o W nXSXSXSXSXSXSX",
"SXDXSXDXSXSXDXkXk L.o.4.<.&.*.<.<.<.,.,.,.,.,.,.3.X.%.2.X./ - VXmX@ , X.4.+.<.<.,.,.<.<.<.<.<.<.,.4.@.,.=.<.x.w kXSXSXDXSXSXSXSX",
"SXDXSXSXSXSXCXSXo H | =.<.X.V.X.<.<.<.<.<.<.<.<.,.X.6.X...< - mXCXaXe V...,.X.<.<.<.<.<.<.<.<.<...=.+.@.m.#.C . DXSXDXSXSXDXCXSX",
"CXSXSXDXSXSXSXSX' o L.%.2.@.*.%.<.<.,.,.*.*.,.*.%.<.*.&.>.3 4XNXMXSX. H.,.,.&.%.,.,.,.,.,.&.&.&.<.6.@.<.m.} 5 R SXSXCXSXSXSXSXSX",
"SXCXSXCXSXSXSXSXnXg _ 2.| <.*.<.,.<.,.,.*.*.*.*.,.&.3.<.S.: VXzXSXCX2 K +.3.%.3.%.%.%.%.&.%.&.&.&.o...m.,./ j BXSXDXSXCXSXSXSXDX",
"SXSXSXSXSXSXSXSXMXT < S.*.=.m.O.%.%.%.,.,.,.,.,.*.X.X.>.c % CXNXVXCX[ < O.=.-.+.&.%.,...| ,.*.4.%.=.o.&.N.> j lXSXSXSXSXSXSXSXSX",
"SXSXSXSXSXSXSXSXlXCXh c $.&.&.@.-.-.=.&.&.&.=.=.-.@. .F.3 Q NXNXDXVXBXa ^ $.@.&.X.o.&.&.=.&.X.o.m.X.o.N.V $ kXNXSXSXSXSXSXSXSXSX",
"SXSXSXSXSXSXSXSXCXCXpXw 7 n.1.m.@.o.o.X.o.&.-.-.o.N.f.3 k VXCXCXCXSXNXY i K N.6.+.<...%.&.%.%.4.%.7.D.P # R BXCXSXSXSXSXSXSXSXSX",
"SXSXSXSXSXSXSXSXSXNXNXuXk w K b.M.M.M.*.*.B.B.D.d.b d   lXSXSXSXDXBXBXxXT p , f.D.M.-.X.X.o.X...B.v.A a k VXNXMXSXSXSXSXSXSXSXSX",
"SXSXSXSXSXSXSXSXNXDXSXCXhXy 2 : 9 n G B N e 6 p d i k nXSXDXNXDXCXDXCXDXVX6Xi 5 > b L ) ] d._ K b 5 = x VXVXDXDXSXSXSXSXSXSXSXSX",
"SXSXSXSXSXSXSXSXCXNXDXMXCXcXpXx % j h & h * = j 6XkXlXSXSXDXDXSXVXSXSXNXDXSXnXqX- q h 4 i & & i h = pXDXVXCXCXNXSXSXSXSXSXSXSXSX",
"SXSXSXSXSXSXSXSXCXCXNXSXxXCXmXVXzXNXlXlXMXCXCXSXCXSXSXSXNXNXDXNXDXVXSXMXCXDXDXCXlXSXnXsXpX0X0XgXGXNXNXmXxXCXSXVXSXSXSXSXSXSXSXSX",
"SXSXSXSXSXSXSXSXVXDXSXSXVXNXSXCXSXVXVXSXSXSXSXDXVXCXNXNXSXSXVXSXNXCXSXSXDXNXDXSXSXBXSXSXCXSXDXSXmXVXVXSXCXVXSXMXSXSXSXSXSXSXSXSX"
};
